storage/app/icons/phosphoricons/fill/images-fill.svg

<svg xmlns="http://www.w3.org/2000/svg" fill="currentColor" viewBox="0 0 256 256"><path d="M216 40H72a16 16 0 0 0-16 16v16H40a16 16 0 0 0-16 16v112a16 16 0 0 0 16 16h144a16 16 0 0 0 16-16v-16h16a16 16 0 0 0 16-16V56a16 16 0 0 0-16-16m-44 32a12 12 0 1 1-12 12 12 12 0 0 1 12-12m12 128H40V88h16v80a16 16 0 0 0 16 16h112Zm32-32H72v-47.31l30.34-30.35a8 8 0 0 1 11.32 0L163.31 140 189 114.34a8 8 0 0 1 11.31 0L216 130.07z"/></svg>

<svg xmlns="http://www.w3.org/2000/svg" viewBox="0 0 256 256" fill="currentColor"><path d="M216,40H72A16,16,0,0,0,56,56V72H40A16,16,0,0,0,24,88V200a16,16,0,0,0,16,16H184a16,16,0,0,0,16-16V184h16a16,16,0,0,0,16-16V56A16,16,0,0,0,216,40ZM172,72a12,12,0,1,1-12,12A12,12,0,0,1,172,72Zm12,128H40V88H56v80a16,16,0,0,0,16,16H184Zm32-32H72V120.69l30.34-30.35a8,8,0,0,1,11.32,0L163.31,140,189,114.34a8,8,0,0,1,11.31,0L216,130.07V168Z"/></svg>
